X:1906
T:Bourrée de Reyrac
M:3/8
L:1/16
K:C
G2|c3Bcd|e2d4|efg2g2|f2dedc|B2G2G2|\
c3Bcd|e2d4|efg^fga|1 g4:|2 g6||
|:f3def|e2c4|ded2c2|B2d4|\
f3def|e2c4|ded2B2|1 c6:|2 c4||


